X: 202
T: Harry Schaefer's Mazurka No 2
B: australian dance tunes
M:3/4
L:1/8
Q: 1/4=100
K:G
V:1 
|:D2 sD/2E/2sF GA|B2 BG Bc|A2 AG AB|G2 G2 z2|D2 sD/2E/2sF GA|B2 BG Bc|A2
 AG AB|G2 G2 d2|!
e2 ef gf/2e/2|d2 B2 Bd|c2 A2 Ac|B2 G2 Bd|e2 ef g/2f/2e|d2 B2 gg|f2 d2 ba
|g6:|
% abcbook-tune_id 62a078507b30e268baeebf3a


% abcbook-boost 0
% abcbook-tablature 
% abcbook-transpose 
% abcbook-lastupdated 1654683750309
% abcbook-soundfonts 
% abcbook-repeats 1


